!!!!SEGMENT: pl-wtm--r-1444_stefani-jozef--spiewka-basi-z-operety-piorun.krn
!!!cenid: 18xx:2460
!!!COM: Stefani, Józef
!!!COM-rismID: pe30024097
!!!CDT: 1800/04/16-1876/03/19
!!!CNT: Polish
!!!OTL: Śpiewka Basi z operety Piorun
!!!PDT:
!!!AGN: Secular
!!!YEC: Copyright 2022 Narodowy Instytut Fryderyka Chopina (https://polishscores.org)
!!!YEM: License CC-BY-4.0 (https://creativecommons.org/licenses/by/4.0)
!!!SMS-siglum: PL-Wtm
!!!SMS-shelfmark: R 1444
!!!SMS-shelfwork: W
!!!SMS-variant:
!!!SMS-altvar:
!!!NIFC-rismSourceID: 1001116460
!!!NIFC-rismChildID: 1001116460
!!!NIFC-islandoraID: pl-wtm:25725
!!!URL-pdf-islandora: https://repozytorium.nifc.pl/islandora/object/pl-wtm%3A25725/datastream/PDF/view
!!!URL-scan: https://polish.musicsources.pl/pl/lokalizacje/galeria/rekopisy/6260 @EN{Scan on Polish Music Sources Website} @PL{Skany w portalu Dziedzictwo Muzyki Polskiej w otwartym dostępie}
!!!IIIF:
!!!ONB-nifc:
!!!OMD: Andantino.
!!!AIN: 1 empty 1 piano
!!!key:
**kern	**kern	**dynam	**kern	**text	**text	**dynam
*part2	*part2	*	*part1	*	*	*
*staff3	*staff2	*	*staff1	*	*	*
*Ipiano	*Ipiano	*	*Iempty	*	*	*
*I"Piano	*I"Piano	*	*I"Basia	*	*	*
*>[A,B,C,C,B]	*>[A,B,C,C,B]	*>[A,B,C,C,B]	*>[A,B,C,C,B]	*>[A,B,C,C,B]	*>[A,B,C,C,B]	*>[A,B,C,C,B]
*>A	*>A	*>A	*>A	*>A	*>A	*>A
*clefF4	*clefG2	*	*clefG2	*	*	*
*k[f#]	*k[f#]	*	*k[f#]	*	*	*
*D:	*D:	*	*D:	*	*	*
*M3/4	*M3/4	*	*M3/4	*	*	*
*all\right	*all\right	*	*all\right	*	*	*
=1	=1	=1	=1	=1	=1	=1
*	*^	*	*	*	*	*
*clefG2	*2\right	*	*	*	*	*	*
!	!	!	!LO:DY:rj	!	!	!	!
(2g/	(2dd/	2b\	p	2.r	.	.	.
.	.	.	<	.	.	.	.
4f#/	4dd#X/	4a\	.	.	.	.	.
=2	=2	=2	=2	=2	=2	=2	=2
2e/	2ee/)	2b 2g\	.	2.r	.	.	.
4c#X/)	4gg/	4ee 4b-X 4g\	[ sf	.	.	.	.
=3	=3	=3	=3	=3	=3	=3	=3
2d/	(4b/	2g\	>	2.r	.	.	.
.	4a/	.	]	.	.	.	.
*clefF4	*	*	*	*	*	*	*
4d 4D\	4dd 4f#/)	4ryy	.	.	.	.	.
*	*v	*v	*	*	*	*	*
=4	=4	=4	=4	=4	=4	=4
4r	4r	.	4r	.	.	.
!	!LO:TX:b:t=V&colon; S&colon;	!	!	!	!	!
4r	4r	.	4r	.	.	.
!!LO:PB:g=original
=||	=||	=||	=||	=||	=||	=||
*>B	*>B	*>B	*>B	*>B	*>B	*>B
!	!LO:TX:a:t=[segno]	!LO:DY:rj	!LO:TX:a:t=[segno]	!	!	!
4G\	4d 4B/	p	4d/	Czy	.	.
=5	=5	=5	=5	=5	=5	=5
*	*^	*	*	*	*	*
(4C/	(4e/	2c\	.	4e/	ra-	.	.
4A\	4f#/	.	.	4f#/	-nek	.	.
8B\L	8g/L	4d\	.	(>8g/L	czy	.	.
8F#\J	8a/J	.	.	8a/J)	.	.	.
*	*v	*v	*	*	*	*	*
=6	=6	=6	=6	=6	=6	=6
2G\)	2dd 2d/)	.	2b/	mrok	.	.
4r	4bb 4b\	.	4b/	Tu	.	.
=7	=7	=7	=7	=7	=7	=7
!	!	!LO:DY:rj	!	!	!	!
8D 8DD/	8ddd 8dd\	mf	8dd\	za-	.	.
8r	8r	.	8r	.	.	.
4c 4F# 4D\	4aa 4a\	.	4a/	-wsze	.	.
!	!LO:TUP:a:problem=klamra łukowa, łuczek zamiast numeru	!	!LO:TUP:a:problem=klamra łukowa, łuczek zamiast numeru	!	!	!
4r	12cc#X\L	.	12cc#X\L	iest	.	.
.	12ee\	.	12ee\	.	.	.
.	12cc#\J	.	12dd\J	.	.	.
=8	=8	=8	=8	=8	=8	=8
*	*^	*	*	*	*	*
4.B 4.G\	4.b\	2ryy	.	4.b\	tłok	.	.
8r	8ryy	.	.	8r	.	.	.
*clefG2	*	*	*	*	*	*	*
!	!	!	!LO:DY:rj	!	!	!	!
4g/	4dd/	4b\	p	4r	.	.	.
=9	=9	=9	=9	=9	=9	=9	=9
(>4c/	(4ee/	2cc\	.	2.r	.	.	.
4a/	4ff#/	.	.	.	.	.	.
8b/L	8gg/L	4ryy	.	.	.	.	.
8f#/J)	8aa/J)	.	.	.	.	.	.
*	*v	*v	*	*	*	*	*
!!LO:LB:g=original
=10	=10	=10	=10	=10	=10	=10
2g/	2bb 2dd\	.	4r	.	.	.
.	.	.	4r	.	.	.
4r	4r	.	(8.b\L	tu	.	.
.	.	.	16dd\Jk)	.	.	.
*clefF4	*	*	*	*	*	*
=11	=11	=11	=11	=11	=11	=11
8D 8DD/	8ddd 8dd\	.	8dd\	za-	.	.
8r	8r	.	8r	.	.	.
4c 4F# 4D\	4aa 4a\	.	4a/	-wsze	.	.
!	!LO:TUP:a:problem=klamra łukowa, łuczek zamiast numeru	!	!LO:TUP:a:problem=klamra łukowa, łuczek zamiast numeru	!	!	!
4r	12cc#X\L	.	12cc#X\L	iest	.	.
.	12ee\	.	12ee\	.	.	.
.	12dd\J	.	12dd\J	.	.	.
=12	=12	=12	=12	=12	=12	=12
8B 8G\	8b\	.	4.b\	tłok	.	.
8r	(32dd\LLL	.	.	.	.	.
.	32b\	.	.	.	.	.
.	32dd\	.	.	.	.	.
.	32b\JJJ)	.	.	.	.	.
8G 8GG\	8gg 8b 8g\	sf	.	.	.	.
8r	8r	.	8r	.	.	.
4r	4r	mf	8.b\	Wszy-	.	.
.	.	.	16b\	-scy	.	.
=13	=13	=13	=13	=13	=13	=13
!	!	!	!LO:N:vis=8.	!	!	!
8C#X 8CC#X/	8r	.	4.a/	zbo-	.	.
8r	8a 8e 8A/	.	.	.	.	.
8C# 8CC#/	8r	.	.	.	.	.
!	!	!	!LO:N:vis=16.	!	!	!
8r	8a 8e 8A/	.	16e/	-że	.	.
.	.	.	16b/	przy-	.	.
8C# 8CC#/	8r	.	8.a/	-no-	.	.
8r	8a 8e 8A/	.	.	.	.	.
.	.	.	16g/	-szą	.	.
!!LO:LB:g=original
=14	=14	=14	=14	=14	=14	=14
8D 8DD/	8r	.	4.f#/	swe	.	.
8r	8f# 8d 8A/	.	.	.	.	.
8D 8DD/	8r	.	.	.	.	.
8r	8f# 8d 8A/	.	8f#/	I	.	.
8D 8DD/	8r	.	8f#/	cho-	.	.
8r	8f# 8d 8A/	.	8f#/	-ciasz	.	.
=15	=15	=15	=15	=15	=15	=15
.	.	.	(8qa/	.	.	.
8A#X 8AA#X\	8r	.	4g/)	we	.	.
8r	8f# 8e 8c#X/	.	.	.	.	.
!	!	!LO:HP:t=cresc&colon;	!	!	!	!
8A# 8AA#\	8r	<	8f#/	mnie	.	.
8r	8f# 8e 8c#/	.	8r	.	.	.
8A# 8AA#\	8r	.	8.f#/	to-	.	.
8r	8f# 8e 8c#/	.	.	.	.	.
.	.	.	16f#/	-piąc	.	.
=16	=16	=16	=16	=16	=16	=16
8B 8BB\	8dd 8f# 8d/	sf	4dd\	wzrok	.	.
16r	16r	.	.	.	.	.
*clefG2	*	*	*	*	*	*
!	!	!LO:DY:rj	!	!	!	!
(16b\KL	(16bb\KL	p	.	.	.	.
8dd\J)	8dddJ\)	.	8r	.	.	.
8r	8r	.	8b\	po-	.	.
4r	4r	.	8b\	-ło-	.	.
.	.	.	8b\	-wę	.	.
=17	=17	=17	=17	=17	=17	=17
!LO:CL:ed	!	!	!	!	!	!
*clefF4	*	*	*	*	*	*
*tremolo	*tremolo	*	*	*	*	*
32GG\LLL	(32eLLL 32d/	.	4b\	ziar-	.	.
32G\	32B/	.	.	.	.	.
32GG\	32e 32d/	.	.	.	.	.
32G\	32B/	.	.	.	.	.
32GG\	32e 32d/	.	.	.	.	.
32G\	32B/	.	.	.	.	.
32GG\	32e 32d/	.	.	.	.	.
32G\	32B/	.	.	.	.	.
!	!	!LO:HP:a	!	!	!	!
32GG\	32e 32d/	<	8e/	-na	.	.
32G\	32B/	.	.	.	.	.
32GG\	32e 32d/	.	.	.	.	.
32G\	32B/	.	.	.	.	.
32GG\	32e 32d/	.	8r	.	.	.
32G\	32B/	.	.	.	.	.
32GG\	32e 32d/	.	.	.	.	.
32G\JJJ	32B/JJJ	.	.	.	.	.
*Xtremolo	*Xtremolo	*	*	*	*	*
32GG\LLL	32e#XLLL 32c/	.	8.e#X/	sy-	.	.
32G\	32B/	.	.	.	.	.
32GG\	32e# 32c/	.	.	.	.	.
32G\	32B/	.	.	.	.	.
32GG\	32e# 32c/	.	.	.	.	.
32G\	32B/	.	.	.	.	.
32GG\	32e# 32c/	.	16e#/	-pią	.	.
32G\JJJ	32B/JJJ)	[[	.	.	.	.
!!LO:LB:g=original
=18	=18	=18	=18	=18	=18	=18
*clefF4	*	*	*	*	*	*
8F# 8FF#/	8f# 8c#X 8A#X/	.	8f#/	w_bok	.	.
!	!	!LO:DY:a	!	!	!	!
32ELLL 32EE/	32gLLL 32c# 32A#/	sf	8r	.	.	.
!	!	!LO:HP:a	!	!	!	!
32E 32EE/	32g 32c# 32A#/	>	.	.	.	.
32E 32EE/	32g 32c# 32A#/	.	.	.	.	.
32EJJJ 32EE/	32gJJJ 32c# 32A#/	]	.	.	.	.
8F# 8FF#/	8f# 8c# 8A#/	.	4r	.	.	.
8r	8r	.	.	.	.	.
4r	8.ff#L 8.f#\	.	8.f#/	Prze-	.	.
.	16ff#Jk 16f#\	.	16f#/	-ciesz	.	.
=19	=19	=19	=19	=19	=19	=19
*2\right	*	*	*	*	*	*
2.c#X 2.A 2.G^<\	4.ee 4.e\	.	4.e/	mych	.	.
.	16ff#LL 16f#\	.	16f#/	u-	.	.
.	16ggJJ 16g\	.	16g/	-sług	.	.
.	8.aaL 8.a\	.	8.a/	każ-	.	.
.	16bbJk 16b\	.	16b/	-dy	.	.
=20	=20	=20	=20	=20	=20	=20
2d 2A 2F#\	2aa 2a\	.	2a/	chce	.	.
4r	4r	.	8.dd\	u-	.	.
.	.	.	16dd\	-sług	.	.
=21	=21	=21	=21	=21	=21	=21
!	!LO:S:s=2:note:problem=note-level slur	!	!	!	!	!
4.d 4.A 4.F#\	(4ddd (>4dd\	<	4dd\	ład-	.	.
.	8aa 8a\))	[	8a\	-nej	.	.
8r	8r	.	8r	.	.	.
4r	4r	.	(16cc#X\LL	mły-	.	.
.	.	.	16dd\	.	.	.
.	.	.	16ee\	.	.	.
.	.	.	16dd\JJ)	.	.	.
!!LO:PB:g=original
=22	=22	=22	=22	=22	=22	=22
!	!LO:S:s=2:note:problem=note-level slur	!	!	!	!	!
4d 4B 4G\	(4ddd (>4dd\	<	4dd\	-nar-	.	.
8fn 8d 8G#X\	8bb 8b\))	[	8b\	-ki	.	.
8r	8r	.	16r	.	.	.
.	.	.	16b\	Tak	.	.
4r	4r	.	8.cc#X\	każ-	.	.
.	.	.	16dd\	-dy	.	.
=23	=23	=23	=23	=23	=23	=23
4AA 4AAA/	4f# 4d 4A/	.	(4a/	chce	.	.
4r	4r	.	16b/LL	tak	.	.
.	.	.	16a/	.	.	.
.	.	.	16g#X/	.	.	.
.	.	.	16a/JJ)	.	.	.
4AA 4AAA;/	4g 4c#X 4A;/	.	8.ff#;\	każ-	.	.
.	.	.	16ee\	-dy	.	.
=24	=24	=24	=24	=24	=24	=24
8D 8DD/	8f# 8d 8A/	.	4dd\	chce.	.	.
8r	8r	.	.	.	.	.
!LO:TX:b:i:t=fine	!	!LO:DY:rj	!LO:TX:b:i:t=fine	!	!	!
4D 4DD/	4dd 4a 4f# 4d/	f	4r	.	.	.
=!|:;	=!|:;	=!|:	=!|:;	=!|:	=!|:	=!|:
*>C	*>C	*>C	*>C	*>C	*>C	*>C
4D/	(4d/	.	4r	.	.	.
!!LO:LB:g=original
=25	=25	=25	=25	=25	=25	=25
!	!LO:TX:a:t=P:problem=brak zakończenia łuku	!	!	!	!	!
8D 8DD/	8f# 8c 8A/)	.	2.r	.	.	.
*clefG2	*	*	*	*	*	*
(32a/LLL	(32aa\LLL	.	.	.	.	.
32g/	32gg\	.	.	.	.	.
32f#/	32ff#\	.	.	.	.	.
32e/JJ	32ee\JJ	.	.	.	.	.
8d/J)	8dd\J)	.	.	.	.	.
8r	8r	.	.	.	.	.
*clefF4	*	*	*	*	*	*
4D/	(>4d^/	.	.	.	.	.
=26	=26	=26	=26	=26	=26	=26
8D 8DD/	8a 8f# 8d/)	.	4r	.	.	.
*clefG2	*	*	*	*	*	*
(32cc/LLL	(32ccc\LLL	.	.	.	.	.
32b/	32bb\	.	.	.	.	.
32a/	32aa\	.	.	.	.	.
32g/JJ	32gg\JJ	.	.	.	.	.
8f#/J)	8ff#\J)	.	4r;	.	.	.
8r;	8r;	.	.	.	.	.
4r	4r	.	4d/	Gdy	Znam	.
*clefF4	*	*	*	*	*	*
=27	=27	=27	=27	=27	=27	=27
16DD'/LL	4f# 4d 4c 4A/	.	8cc\	wiatr	mło-	.
(16D/	.	.	.	.	.	.
16C#X/	.	.	8r	.	.	.
16D/JJ	.	.	.	.	.	.
16C#/LL	4r	.	4.g#X/	młyn	-dzi	.
16D/	.	.	.	.	.	.
16C#/	.	.	.	.	.	.
16D/JJ)	.	.	.	.	.	.
16DD|/LL	4f# 4d 4c 4A/	.	.	.	.	.
(16D/	.	.	.	.	.	.
16C#/	.	.	8a/	o-	zwy-	.
16D/JJ)	.	.	.	.	.	.
=28	=28	=28	=28	=28	=28	=28
16GG|/LL	4.g 4.d 4.B/	.	4b/	-bra-	-cza-	.
(16D/	.	.	.	.	.	.
16C#X/	.	.	.	.	.	.
16D/JJ)	.	.	.	.	.	.
8GG/	.	.	8g/	-ca,	-ie	.
8r	8r	.	8r	.	.	.
4r	4r	.	4b/	Nie	W_ich	.
=29	=29	=29	=29	=29	=29	=29
8C#X/	8r	.	4a/	słu-	tkli-	.
!	!	!LO:DY:a	!	!	!	!
8r	8g 8e 8A/	sfp	.	.	.	.
8AA/	8r	.	4.e/	-cham	-wość	.
8r	8g 8e 8A/	.	.	.	.	.
8C#/	8r	.	.	.	.	.
8r	8g 8e 8A/	.	8g/	ni-	nie	.
!!LO:LB:g=original
=30	=30	=30	=30	=30	=30	=30
8D\	8r	.	(8.f#/L	-ko-	wie-	.
8r	8f#L 8d 8A/	.	.	.	.	.
.	.	.	16a/Jk)	.	.	.
8D 8DD/	8f#J 8d 8A/	.	8a/	-go	-rzę,	.
8r	8r	.	8r	.	.	.
4r	4dd 4d/	.	(8.d/L	ko-	Kto	.
.	.	.	16cc/Jk)	.	.	.
=31	=31	=31	=31	=31	=31	=31
4A 4F# 4D\	8ccc 8cc\	.	8cc\	-chan-	ser-	.
.	8r	.	8r	.	.	.
4r	4.gg#X 4.g#X^<\	.	4.g#X/	-ków	-ce	.
4c 4F# 4D\	.	.	.	.	.	.
.	8aa 8a\	.	8a/	czcza	mi	.
=32	=32	=32	=32	=32	=32	=32
!	!LO:S:s=2:note:problem=note-level slur	!	!	!	!	!
4.B 4.G\	(4bb (>4b\	.	4b/	pra-	da-	.
.	8gg 8g\))	.	8g/	-ca	-je	.
8r	8r	.	8r	.	.	.
4r	4r	.	4b/	Choć	Od-	.
=33	=33	=33	=33	=33	=33	=33
8C#X/	8r	.	2a/	mię	-po-	.
8r	8g 8e 8A/	.	.	.	.	.
*	*rep	*	*	*	*	*
8AA/	8r	.	.	.	.	.
8r	8g 8e 8A/	.	.	.	.	.
.	.	.	8qcc#X/	.	.	.
*	*Xrep	*	*	*	*	*
*	*rep	*	*	*	*	*
8C#/	8r	.	8.b/	zo-	-wia-	.
8r	8g 8e 8A/	.	.	.	.	.
.	.	.	16a/	-wią	-dam	.
*	*Xrep	*	*	*	*	*
=34	=34	=34	=34	=34	=34	=34
8D/	8r	.	(4ff#\	sro-	szcze-	.
!	!	!LO:DY:a	!	!	!	!
8r	8f# 8d 8A/	sfp	.	.	.	.
*	*rep	*	*	*	*	*
8D/	8r	.	8dd\)	-gą	-rze;	.
8r	8f# 8d 8A/	.	8r	.	.	.
*	*Xrep	*	*	*	*	*
*	*rep	*	*	*	*	*
8D/	8r	.	4f#/	Spòj-	Pię-	.
8r	8f# 8d 8A/	.	.	.	.	.
*	*Xrep	*	*	*	*	*
=35	=35	=35	=35	=35	=35	=35
8A#X\	8r	.	2f#/	-rze-	-kne	.
8r	8f# 8e 8c#X/	.	.	.	.	.
*	*rep	*	*	*	*	*
8F#\	8r	.	.	.	.	.
8r	8f# 8e 8c#/	.	.	.	.	.
.	.	.	(8qa/	.	.	.
*	*Xrep	*	*	*	*	*
*	*rep	*	*	*	*	*
8A#\	8r	.	8g/)	-niem	wa-	.
8r	8f# 8e 8c#/	.	8f#/	i	-sze	.
*	*Xrep	*	*	*	*	*
!!LO:LB:g=original
=36	=36	=36	=36	=36	=36	=36
8B\	8r	.	4dd\	sło-	sid-	.
8r	8f# 8d/	.	.	.	.	.
8B\	8r	.	8b\	-wy	-ła	.
8r	8f# 8d/	.	8r	.	.	.
8A\	8r	.	4fn/	Drwię	Ja	.
8r	8fn 8d 8B/	.	.	.	.	.
=37	=37	=37	=37	=37	=37	=37
8G#X\	8r	.	2e/	z_ich	wier-	.
8r	8e 8d 8B/	.	.	.	.	.
*	*rep	*	*	*	*	*
8E\	8r	.	.	.	.	.
8r	8e 8d 8B/	.	.	.	.	.
.	.	.	(8qg#X/	.	.	.
*	*Xrep	*	*	*	*	*
*	*rep	*	*	*	*	*
8G#\	8r	.	8f#/)	smut-	-ną	.
8r	8e 8d 8B/	.	8e/	-nych	być	.
*	*Xrep	*	*	*	*	*
=38	=38	=38	=38	=38	=38	=38
4A\	4e 4c#X/	.	4a/	min	chcę	.
8r	8r	.	4r	.	.	.
*clefG2	*	*	*	*	*	*
(16cc#X\LL	(16ccc#X\LL	.	.	.	.	.
16ee\JJ)	16eee\JJ)	.	.	.	.	.
!	!LO:N:vis=4	!	!	!	!	!
4a/	8aa\	.	8r	.	.	.
!	!LO:N:vis=4	!	!	!	!	!
.	8r	.	8a/	Za-	Cho-	.
*clefF4	*	*	*	*	*	*
=39	=39	=39	=39	=39	=39	=39
8Gn 8GGn\	8r	.	2a/	-wra-	-ciasz	.
8r	8e 8c#X 8A/	.	.	.	.	.
*rep	*rep	*	*	*	*	*
!	!	!	!	!	!	!LO:DY:a
8G 8GG\	8r	<	.	.	.	<
8r	8e 8c# 8A/	.	.	.	.	.
*Xrep	*Xrep	*	*	*	*	*
*rep	*rep	*	*	*	*	*
8G 8GG\	8r	.	8b\	-cam	młyn	.
8r	8e 8c# 8A/	[[	8cc#X\	im	ma	[[
*Xrep	*Xrep	*	*	*	*	*
=40	=40	=40	=40	=40	=40	=40
!	!	!	!	!	!	!LO:DY:a
8F# 8FF#\	8r	.	(4.ee\	gło-	skrzy-	>
8r	8d 8A/	>	.	.	.	.
8F# 8FF#\	8r	.	.	.	.	.
8r	8d 8A/	.	8dd\)	.	.	]
.	.	.	(>8qdd/	.	.	.
8G 8GG\	8r	]	8.cc#X\L)	-wy	-dła	.
8r	8e 8d 8B/	.	.	.	.	.
.	.	.	16b\Jk	.	.	.
=41	=41	=41	=41	=41	=41	=41
8A 8AA\	8r	.	(16b/LL	Gdy	Lecz	.
.	.	.	16a/JJ)	.	.	.
8r	8f# 8d 8A/	.	(16g#X/LL	spo-	mły-	.
.	.	.	16a/JJ)	.	.	.
8A 8AA\	8r	.	4.ff#\	-czy-	-nar-	.
8r	8f# 8d 8A/	.	.	.	.	.
8AA 8AAA/	8r	.	.	.	.	.
8r	8g 8c#X 8A/	.	8ee\	-wa	-ka	.
=42	=42	=42	=42	=42	=42	=42
8D 8DD/	8f# 8d 8A/	.	4dd\	młyn.	nie.	.
8r	8r	f	.	.	.	.
!LO:TX:b:i:t=d'al segno al fine	!LO:TX:a:t=[segno]	!	!LO:TX:a:t=[segno]	!	!	!
4D 4AA 4DD/	4dd 4f# 4d/	.	4r	.	.	.
=:|!	=:|!	=:|!	=:|!	=:|!	=:|!	=:|!
*-	*-	*-	*-	*-	*-	*-
!!!system-decoration: s1{(s2,s3)}
!!!RDF**kern: > = above
!!!RDF**kern: < = below
!!!RDF**kern: | = vertical stroke
!!!ENC: Andrzej Kubiczek
!!!END: 2021-06-28
!!!ENC: Andrzej Gręziak
!!!END: 2021-06-22
